shader dates (
	color Cin=1,
output	color Cout=1
)
{
	//color silver=color("rgb",0.39,0.39,0.39);
	point shaderP = transform("object",P);

	Cout = (color)texture("metal.tx",shaderP[0]/6+0.5,shaderP[1]/6+0.5);



//do it with fixed image
//	color out = (color)texture("metal.tx",shaderP[0]/6+0.5,shaderP[1]/6+0.5);
//	out *= (float)noise("uperlin",P[0]*100);
//	if(N[2] <0)
//		out = 0;
//	Cout = out;
}

