shader metalDisp (
output	float resultF=0,
output float disp=0
)
{
	point shaderP = transform("object",P);
	
	
	if (resultF == color ("rgb",0,0,0))
		disp = -0.2;


	//resultF for displacement
	resultF = (float)texture("metalDisp.tx",shaderP[0]/6+0.5,shaderP[1]/6+0.5);
	resultF = resultF*disp;



	//Cout=(color)texture("metal.tx",shaderP[0]/6+0.5,shaderP[1]/6+0.5);
}
