shader noiseMetal (
	color Cin=1,
output	color Cout=1
//output float resulF=0
)
{
    point PP=transform("shader",P);
    //Cout=(color)noise("uperlin",PP*10);
    //Cout=(float)noise("uperlin",PP[0]*100)+0.5;
    Cout=(float)noise("uperlin",PP[0]*100);
}

